!!!OTL: Treue Freundschaft (90), S. 235
!!!id: T0248
**kern
*clefG2
*k[b-]
*F:
{8cc
8a
=1
4f
4a
4a
8g
8a
=2
4b-
4a}
4r
=3
{8f
16a
16cc
=4
4cc
4cc
8b-
8a
8b-
8cc
=5
2a}
4r
=6
{8f
8dd
=7
4dd
4ff
4ff
8ee
8dd
=8
8dd
8cc
8dd
8cc}
4r
=9
{8cc
8cc
=10
8cc
8b-
8dd
8cc
4b-
8g
8b-
=11
2a}
4r
==
*-
!!!minrhy: 16
!!!meters: 4/4 ]  ZZ[4
!!!cut: Treue Freundschaft (90), S. 235
!!!reg: Luxemburg
!!!trd: Singendes Volk, Esch-Alzette 1937 posth.
!!!rhy1: X_X_  X__X__X__X_X_  X__X__0__
!!!rhy2: X_XX  X__X__X_X_X_X_  X___0__
!!!key: T0248  16  F 4/4 ]  ZZ[4
!!!mod: HEPTATONIK IONISCH]  AMBITUS[8
!!!kad: 3353
!!!akz: 134_543_6+16_543_
!!!fot: 'a__b__c__bv_
!!!for: 'a__b__c__d__
!!!fok: 'Vd_Ma_^a_\__
!! PHRAS[AUFTAKTIG]
!!!fkt: Liebeslieder
!!!bem: StraPen, fff Witry, 17.1.1933
!! THILL, Mathias:
!! PR[17] 2K[6] 2G[20] 3K[6] 3G[3] 4A[6] 4Ü[0] 5A[0] 6K[0] 6G[0]
!! 7K[0] 7G[0] 8A[0] MEHR[0] SI[40] ABS[35] SR[26] SP[14]
!! ST[8] 2k[14] 2g[23] 3k[0] 3g[3] 4d[0] 4ü[0] 5d[3] 6k[0] 6g[0]
!! 7k[0] 7g[0] 8d[0] mehr[0] si[43] dm[-3] sr[37] sp[6]
!! 1F[10] 2F[59] 3F[26] 4F[0] LF[0] 2P[5] 3P[0] 4P[0] TRI[0] DF[4] AB[39]
!! TF[0] U3K[0] U3[3] U4[3] U4Ü[0] U5[14] U6K[0] U6[6] U7K[0] U7[6]
!! N1[19] N2K[0] N2[17] N3K[0] N3[19] N4[8] N4Ü[0] N5[6] N6K[0] N6[0]
!!!n7k: 0] N7[0] O1[0] O2K[0] O2[0] O3K[0] O3[0] HÖ[0
